X:26
T:Absinthe Makes the Heart Grow Fonder
C:Ross Ainslie
Z:Gwen 2021-12-19 d'après le "tune walkthrough" de Jenn Butterworth
M:2/2
K:E
|: e3e dcBA | e2f/g/a g2fe | BABe f2BA | Befg a2ga |
   bgab c'2e2 | a3g/f/ e4 | BABf e2BA |1 Bde2 f2gf :|2 Bde2 f4 |
|: Be=d=c B=G=G=G | AEF/=G/A Bcde | fega beee | a3f/e/ =d4 |
   Be=d=c B=G=G=G | AEE/E/E EF=GA | BABf e2BA |1 Bde2 f4 :| Bde2 f2gf ||

